!! "Martial Virtue", Item 21 from Laurence Picken et al
!! "Music From the Tang Court" Vol. 4, Cambridge University Press
!! (Cambridge) 1987; pp. 109-110
!! NOTE: This file contains an amalgamation of four coordinated ms sources.
!! SGYR	JCYR	SSSTF	KF/HSFRK (manuscripts)
!! Lute	Zither	Mouth	Mouth
!!		Organ	Organ
**kern	**kern	**kern	**kern
*M2/2	*M2/2	*M2/2	*M2/2
=1	=1	=1	=1
4D	4d 4dd	4dd	4dd
{16F#	4f# 8ff#	4ff#	4ff#
16E	.	.	.
8F#}	8ff#	.	.
{8F#	4e 4ee	8ff#	8ff#
8E}	.	8ee	8ee
8D	4d 8dd	4dd	4dd
8d	8dd	.	.
=2	=2	=2	=2
{16F#	4f# 4ff#	4ff#	4ff#
16E	.	.	.
8F#}	.	.	.
8A	4A 8aa	4a	4a
8A	8aa	.	.
2A	2a 2aa	4..a	2aa
.	.	32ff#	.
.	.	32ee	.
=3	=3	=3	=3
{16d	{4d 16dd	[{4dd	[4dd
16c#	16cc#	.	.
8d}	8dd}	.	.
8d	4d 8dd	8dd]	8dd]
{16d	{32dd	8cc#}	8cc#
.	32cc#	.	.
16c#}	16dd}	.	.
{8c#	4B 4b	{4b	4b
8B}	.	.	.
{16B	8b	4a}	4a
16A}	.	.	.
{16G#	{32a	.	.
.	32g#	.	.
16A}	16a}	.	.
=4	=4	=4	=4
{16F#	4D 4f#	4ff#	4ff#
16E	.	.	.
8F#}	.	.	.
8A	4A 8a	4a	4a
8A	8a	.	.
2A	2A 2a	2a	2a
=5	=5	=5	=5
4AA	4A 4a	2a	4a
4A	4a	.	4a
{8c#	4B 4b	8b	4b
8B}	.	8r	.
8D	4d 8dd	4dd	4dd
8d	8dd	.	.
=6	=6	=6	=6
{8c#	4B 4b	8b	[4b
8B}	.	8a	.
{16B	8b	4ff#	8b]
16A}	.	.	.
{16G#	{32a	.	8a
.	32g#	.	.
16A}	16a}	.	.
4F#	4f# 4ff#	2ff#	2ff#
4F#	4ff#	.	.
=7	=7	=7	=7
{16F#	4f# 4ff#	{8ee	8ee
16E	.	.	.
8F#}	.	8ff#}	8ff#
8A	4a 8aa	{8a	8a
{32F#	8ff#	8ff#}	8ff#
32E	.	.	.
16F#}	.	.	.
{8F#	4e 4ee	32ff#	8ff#
.	.	[32ee	.
.	.	16ee]	.
8E}	.	8r	8ee
8D	4d 8dd	4dd	4dd
8d	8dd	.	.
=8	=8	=8	=8
{8c#	4B 4b	4b	4b
8B}	.	.	.
8D	4d 8dd	2.dd	4dd
8d	8dd	.	.
2d	2d 2dd	.	2dd
=9	=9	=9	=9
4AA	4A 4a	2a	4a
4A	4a	.	4a
{8c#	4B 4b	4b	4b
8B}	.	.	.
8D	4d 8dd	4dd	4dd
8d	8dd	.	.
=10	=10	=10	=10
{8c#	4B 4b	8b	[4b
8B}	.	8a	.
{16B	8b	2.ff#	8b]
16A}	.	.	.
{16G#	{32a	.	8a
.	32g#	.	.
16A}	16a}	.	.
4F#	4f# 4ff#	.	2ff#
4F#	4ff#	.	.
=11	=11	=11	=11
{16F#	4f# 4ff#	4a	8ee
16E	.	.	.
8F#}	.	.	8ff#
8A	4a 8aa	4ff#	8a
{32F#	8ff#	32aa	8ff#
32E	.	[32ff#	.
16F#}	.	8.ff#]	.
{8F#	4e 4ee	.	8ff#
.	.	.	.
.	.	.	.
8E}	.	8ee	8ee
8D	4d 8dd	4dd	4dd
8d	8dd	.	.
=12	=12	=12	=12
{8c#	4B 4b	4b	4b
8B}	.	.	.
8D	4d 8dd	2.dd	4dd
8d	8dd	.	.
2d	2d 2dd	.	2dd
====	====	====	====
*-	*-	*-	*-
